X: 3539
T: Big John McNeil
R: reel
M: 4/4
K: Amajor
|:A,2 CE FECE|AECE FECB,|A,2 CE FECE|FAGF EDCB,|
A,2 CE FECE|AECE FECB,|A,CB,D CEDF|1 EGBd cAA z:|2 EGBd cAcd||
|:eAfA eAcd|eAfA e2 (3agf|eAfA eAce|dece B2 cd|eAfA eAcd|
eAfA e2 fg|agfe fedc|1 defg a2 gf:|2 BAGF EDCB,:|3defg a2||

